src/assets/images/check.svg

<svg fill="none" height="25" viewBox="0 0 25 25" width="25" xmlns="http://www.w3.org/2000/svg"><path d="m12.2207 20.3477c4.4187 0 8-3.5813 8-8 0-4.41879-3.5813-8.00004-8-8.00004-4.41875 0-8 3.58125-8 8.00004 0 4.4187 3.58125 8 8 8zm3.5312-9.4688-4 4c-.2937.2938-.7687.2938-1.0593 0l-2.00002-2c-.29375-.2937-.29375-.7687 0-1.0593s.76874-.2938 1.05937 0l1.46875 1.4687 3.4688-3.47189c.2937-.29375.7687-.29375 1.0593 0 .2906.29379.2938.76879 0 1.05939z" fill="#f2ae25"/></svg>

<svg xmlns="http://www.w3.org/2000/svg" width="25" height="25" viewBox="0 0 25 25" fill="none">
    <path
      d="M12.2207 20.3477C16.6394 20.3477 20.2207 16.7664 20.2207 12.3477C20.2207 7.92891 16.6394 4.34766 12.2207 4.34766C7.80195 4.34766 4.2207 7.92891 4.2207 12.3477C4.2207 16.7664 7.80195 20.3477 12.2207 20.3477ZM15.7519 10.8789L11.7519 14.8789C11.4582 15.1727 10.9832 15.1727 10.6926 14.8789L8.69258 12.8789C8.39883 12.5852 8.39883 12.1102 8.69258 11.8196C8.98633 11.529 9.46132 11.5258 9.75195 11.8196L11.2207 13.2883L14.6895 9.81641C14.9832 9.52266 15.4582 9.52266 15.7488 9.81641C16.0394 10.1102 16.0426 10.5852 15.7488 10.8758L15.7519 10.8789Z"
      fill="#F2AE25"/>
  </svg>
